public/images/dar-logo-dec.svg

<svg xmlns="http://www.w3.org/2000/svg" width="125" height="58" viewBox="0 0 125 58" fill="none"><path d="M32.7002 0H43.0901V56.37H32.7002V51.62C29.6402 55.57 25.2901 57.5 19.6501 57.5C14.0101 57.5 9.58021 55.49 5.72021 51.38C1.93021 47.27 0 42.2 0 36.24C0 30.28 1.93021 25.29 5.72021 21.18C9.59021 17.07 14.2601 14.98 19.6501 14.98C25.2901 14.98 29.6402 16.91 32.7002 20.86V0ZM21.5901 47.6C24.8101 47.6 27.4701 46.55 29.5601 44.46C31.6501 42.29 32.7002 39.55 32.7002 36.25C32.7002 32.95 31.6501 30.21 29.5601 28.12C27.4701 25.95 24.8101 24.9 21.5901 24.9C18.3701 24.9 15.71 25.95 13.54 28.12C11.45 30.21 10.4001 32.95 10.4001 36.25C10.4001 39.55 11.45 42.29 13.54 44.46C15.71 46.55 18.3701 47.6 21.5901 47.6Z" fill="#1A354A"></path><path d="M82.3301 16.11H92.7202V56.38H82.3301V51.63C79.1901 55.58 74.8402 57.51 69.2002 57.51C63.5602 57.51 59.2101 55.5 55.3501 51.39C51.5701 47.28 49.6301 42.21 49.6301 36.25C49.6301 30.29 51.5601 25.3 55.3501 21.19C59.2201 17.08 63.8102 14.99 69.2002 14.99C74.8402 14.99 79.1901 16.92 82.3301 20.87V16.12V16.11ZM71.1301 47.6C74.3501 47.6 77.0101 46.55 79.1001 44.46C81.2701 42.29 82.3201 39.55 82.3201 36.25C82.3201 32.95 81.2701 30.21 79.1001 28.12C77.0101 25.95 74.3501 24.9 71.1301 24.9C67.9101 24.9 65.2502 25.95 63.1602 28.12C61.0702 30.21 60.02 32.95 60.02 36.25C60.02 39.55 61.0702 42.29 63.1602 44.46C65.2502 46.55 67.9101 47.6 71.1301 47.6Z" fill="#1A354A"></path><path d="M112.52 23.03C114.45 17.88 119.28 15.3 124.76 15.3V26.9001C121.62 26.5001 118.72 27.1401 116.22 28.8301C113.72 30.5201 112.52 33.2601 112.52 37.1201V56.3701H102.13V16.1H112.52V23.03Z" fill="#1A354A"></path></svg>

<svg xmlns="http://www.w3.org/2000/svg" width="125" height="58" fill="none" viewBox="0 0 125 58"><path fill="#1a354a" d="M32.7 0h10.39v56.37H32.7v-4.75c-3.06 3.95-7.41 5.88-13.05 5.88S9.58 55.49 5.72 51.38C1.93 47.27 0 42.2 0 36.24s1.93-10.95 5.72-15.06c3.87-4.11 8.54-6.2 13.93-6.2 5.64 0 9.99 1.93 13.05 5.88zM21.59 47.6c3.22 0 5.88-1.05 7.97-3.14 2.09-2.17 3.14-4.91 3.14-8.21s-1.05-6.04-3.14-8.13c-2.09-2.17-4.75-3.22-7.97-3.22s-5.88 1.05-8.05 3.22c-2.09 2.09-3.14 4.83-3.14 8.13s1.05 6.04 3.14 8.21c2.17 2.09 4.83 3.14 8.05 3.14m60.74-31.49h10.39v40.27H82.33v-4.75c-3.14 3.95-7.49 5.88-13.13 5.88s-9.99-2.01-13.85-6.12c-3.78-4.11-5.72-9.18-5.72-15.14s1.93-10.95 5.72-15.06c3.87-4.11 8.46-6.2 13.85-6.2 5.64 0 9.99 1.93 13.13 5.88zM71.13 47.6c3.22 0 5.88-1.05 7.97-3.14 2.17-2.17 3.22-4.91 3.22-8.21s-1.05-6.04-3.22-8.13c-2.09-2.17-4.75-3.22-7.97-3.22s-5.88 1.05-7.97 3.22c-2.09 2.09-3.14 4.83-3.14 8.13s1.05 6.04 3.14 8.21c2.09 2.09 4.75 3.14 7.97 3.14m41.39-24.57c1.93-5.15 6.76-7.73 12.24-7.73v11.6c-3.14-.4-6.04.24-8.54 1.93s-3.7 4.43-3.7 8.29v19.25h-10.39V16.1h10.39z"/></svg>
